X:1
T:Bumblebee Reel
M:C
L:1/8
Q:205
C:(c) Greg Anderson
R:Reel
H:For the first bumblebee sighting of the spring
K:A
ed cB A2 E2|EF A2 B4|BA Bc dB dB|cd ef e2 cd|ed cB A2 E2|EF A2 B4|
BG Bc dB ed|cd BG A2 cd:|
|:ef ec d2 d2|cd cA BG EG|AG AB cA EA|fb ag e2 cd|!
ef ec d2 d2|cd cA BG EG|AG AB cA dc|1Bc BG A2 cd:|2fd BG A2 cd||
